snap/Costumes/reindeer.svg

<?xml version="1.0" encoding="UTF-8" standalone="no"?>
<svg
   xmlns:dc="http://purl.org/dc/elements/1.1/"
   xmlns:cc="http://creativecommons.org/ns#"
   xmlns:rdf="http://www.w3.org/1999/02/22-rdf-syntax-ns#"
   xmlns:svg="http://www.w3.org/2000/svg"
   xmlns="http://www.w3.org/2000/svg"
   xmlns:sodipodi="http://sodipodi.sourceforge.net/DTD/sodipodi-0.dtd"
   xmlns:inkscape="http://www.inkscape.org/namespaces/inkscape"
   version="1.1"
   width="78.712555"
   height="138.45441"
   id="svg4834"
   sodipodi:docname="reindeer.svg"
   inkscape:version="0.92.2 5c3e80d, 2017-08-06">
  <metadata
     id="metadata4840">
    <rdf:RDF>
      <cc:Work
         rdf:about="">
        <dc:format>image/svg+xml</dc:format>
        <dc:type
           rdf:resource="http://purl.org/dc/dcmitype/StillImage" />
        <dc:title></dc:title>
      </cc:Work>
    </rdf:RDF>
  </metadata>
  <defs
     id="defs4838" />
  <sodipodi:namedview
     pagecolor="#ffffff"
     bordercolor="#666666"
     borderopacity="1"
     objecttolerance="10"
     gridtolerance="10"
     guidetolerance="10"
     inkscape:pageopacity="0"
     inkscape:pageshadow="2"
     inkscape:window-width="640"
     inkscape:window-height="480"
     id="namedview4836"
     showgrid="false"
     fit-margin-top="0"
     fit-margin-left="0"
     fit-margin-right="0"
     fit-margin-bottom="0"
     inkscape:zoom="0.94779116"
     inkscape:cx="135.30592"
     inkscape:cy="14.360498"
     inkscape:window-x="-4"
     inkscape:window-y="-4"
     inkscape:window-maximized="0"
     inkscape:current-layer="svg4834" />
  <!-- Exported by Scratch - http://scratch.mit.edu/ -->
  <g
     id="ID0.048281502444297075"
     transform="translate(-201.19408,-110.4061)">
    <path
       id="ID0.10931513691321015"
       d="m 1128.857,867.043 c 0,6.626 5.374,12 12,12 h 10.351 c 6.626,0 12,-5.374 12,-12 v -90.288 c 0,-6.63 -5.374,-12 -12,-12 h -10.351 c -6.626,0 -12,5.37 -12,12 z"
       transform="matrix(0.27767,0,0,0.27767,-64.85,3.25)"
       inkscape:connector-curvature="0"
       style="fill:#764e2a;stroke:#000000" />
    <path
       id="ID0.7591547076590359"
       d="m 1146.034,858.543 c 6.988,0 13.326,1.428 17.912,3.735 4.586,2.311 7.424,5.497 7.424,9.014 0,3.517 -2.838,6.703 -7.424,9.01 -4.586,2.311 -10.924,3.739 -17.912,3.739 -6.992,0 -13.326,-1.428 -17.912,-3.739 -4.586,-2.307 -7.428,-5.494 -7.428,-9.01 0,-3.517 2.842,-6.703 7.428,-9.014 4.586,-2.307 10.92,-3.735 17.912,-3.735 z"
       transform="matrix(0.27767,0,0,0.27767,-64.85,3.25)"
       inkscape:connector-curvature="0"
       style="fill:#010101;stroke:#010101" />
    <path
       id="ID0.0989027488976717"
       d="m 1072.037,867.043 c 0,6.626 -5.372,12 -12,12 h -10.351 c -6.626,0 -12,-5.374 -12,-12 v -90.288 c 0,-6.63 5.374,-12 12,-12 h 10.351 c 6.628,0 12,5.37 12,12 z"
       transform="matrix(0.27767,0,0,0.27767,-64.85,3.25)"
       inkscape:connector-curvature="0"
       style="fill:#764e2a;stroke:#000000" />
    <path
       id="ID0.4515355387702584"
       d="m 1054.862,858.543 c 6.99,0 13.324,1.428 17.912,3.735 4.588,2.311 7.426,5.497 7.426,9.014 0,3.517 -2.838,6.703 -7.426,9.01 -4.588,2.311 -10.922,3.739 -17.912,3.739 -6.99,0 -13.324,-1.428 -17.912,-3.739 -4.588,-2.307 -7.426,-5.494 -7.426,-9.01 0,-3.517 2.838,-6.703 7.426,-9.014 4.587,-2.307 10.922,-3.735 17.912,-3.735 z"
       transform="matrix(0.27767,0,0,0.27767,-64.85,3.25)"
       inkscape:connector-curvature="0"
       style="fill:#010101;stroke:#010101" />
    <g
       id="ID0.8780540516600013"
       transform="translate(201,110)">
      <path
         id="ID0.3386278133839369"
         d="m 1007.292,732.448 c 1.695,7.009 -1.445,14.335 -7.73,16.452 -2.654,0.893 -3.978,1.336 -6.635,2.23 -6.28,2.117 -13.725,-2.944 -15.772,-11.402 -13.238,-64.976 4.435,-125.493 50.576,-173.122 6.278,-6.026 15.274,-6.283 19.431,-1.12 1.755,2.182 2.633,3.271 4.391,5.453 4.154,5.163 2.858,13.029 -2.346,18.025 -38.241,40.076 -52.578,89.122 -41.915,143.484 z"
         transform="matrix(0.27767,0,0,0.27767,-265.9,-106.75)"
         inkscape:connector-curvature="0"
         style="fill:#603a17;stroke:#010101" />
    </g>
    <g
       id="ID0.878742640838027"
       transform="translate(201,110)">
      <path
         id="ID0.49854832142591476"
         d="m 1192.81,732.448 c -1.699,7.009 1.442,14.335 7.723,16.452 2.652,0.893 3.978,1.336 6.633,2.23 6.278,2.117 13.723,-2.944 15.77,-11.402 13.249,-64.98 -4.438,-125.486 -50.571,-173.122 -6.281,-6.026 -15.278,-6.283 -19.431,-1.12 -1.755,2.182 -2.634,3.271 -4.389,5.453 -4.154,5.163 -2.859,13.029 2.346,18.025 38.251,40.083 52.558,89.115 41.919,143.484 z"
         transform="matrix(0.27767,0,0,0.27767,-265.9,-106.75)"
         inkscape:connector-curvature="0"
         style="fill:#603a17;stroke:#010101" />
    </g>
    <g
       id="ID0.1720329625532031"
       transform="translate(201,110)">
      <path
         id="ID0.45218329411000013"
         d="m 1063.666,443.944 c -4.171,-2.794 -5.594,-6.25 -6.093,-11.279 -0.499,-5.017 -0.911,-9.981 -1.62,-14.977 -1.083,-7.635 -6.496,-18.162 -16.141,-14.472 -7.94,3.035 -4.653,12.913 -2.807,18.865 0.174,0.561 0.571,1.998 0.791,2.754 -0.146,0.234 -0.302,1.991 -0.373,2.237 -0.292,1.041 -0.64,2.07 -1.092,3.053 -2.115,4.606 -7.604,0.61 -7.384,-3.366 0.327,-5.937 0.876,-10.154 -1.308,-15.906 -1.28,-3.373 -2.669,-7.219 -5.321,-9.793 -5.766,-5.603 -10.628,1.576 -11.784,6.837 -0.893,4.067 -1.018,8.951 -2.012,13.299 -10.911,-10.106 -14.036,-29.46 -29.312,-33.976 -6.651,-1.966 -15.03,-2.502 -19.206,4.115 -3.345,5.3 -1.055,12.818 1.053,18.104 2.365,5.926 5.52,11.594 9.39,16.669 5.877,7.702 14.617,13.428 22.787,18.433 20.789,12.742 45.348,20.671 69.645,22.5 2.084,0.158 3.482,-0.786 4.212,-2.147 0.798,-0.186 1.591,-0.607 2.323,-1.314 8.016,-7.761 1.438,-14.826 -5.748,-19.636 z"
         transform="matrix(0.27767,0,0,0.27767,-265.9,-106.75)"
         inkscape:connector-curvature="0"
         style="fill:#010101" />
      <path
         id="ID0.6435688906349242"
         d="m 1136.429,443.944 c 4.171,-2.794 5.596,-6.25 6.095,-11.279 0.499,-5.017 0.911,-9.981 1.621,-14.977 1.083,-7.635 6.492,-18.162 16.136,-14.472 7.941,3.035 4.653,12.913 2.807,18.865 -0.172,0.561 -0.57,1.998 -0.791,2.754 0.148,0.234 0.306,1.991 0.373,2.237 0.292,1.041 0.64,2.07 1.094,3.053 2.114,4.606 7.604,0.61 7.386,-3.366 -0.331,-5.937 -0.879,-10.154 1.308,-15.906 1.277,-3.373 2.666,-7.219 5.318,-9.793 5.768,-5.603 10.628,1.576 11.789,6.837 0.893,4.067 1.02,8.951 2.012,13.299 10.91,-10.106 14.033,-29.46 29.311,-33.976 6.647,-1.966 15.032,-2.502 19.203,4.115 3.348,5.3 1.055,12.818 -1.055,18.104 -2.363,5.926 -5.515,11.594 -9.39,16.669 -5.873,7.702 -14.617,13.428 -22.783,18.433 -20.789,12.742 -45.348,20.671 -69.643,22.5 -2.089,0.158 -3.482,-0.786 -4.213,-2.147 -0.802,-0.186 -1.59,-0.607 -2.321,-1.314 -8.019,-7.761 -1.442,-14.826 5.743,-19.636 z"
         transform="matrix(0.27767,0,0,0.27767,-265.9,-106.75)"
         inkscape:connector-curvature="0"
         style="fill:#010101" />
    </g>
    <path
       id="ID0.6784169343300164"
       d="m 1099.902,535.542 c 30.032,0 57.243,15.582 76.952,40.755 19.702,25.176 31.903,59.94 31.903,98.307 0,38.367 -12.2,73.132 -31.903,98.303 -19.709,25.175 -46.92,40.758 -76.952,40.758 -30.031,0 -57.246,-15.584 -76.952,-40.758 -19.704,-25.171 -31.903,-59.937 -31.903,-98.303 0,-38.367 12.199,-73.13 31.903,-98.307 19.706,-25.172 46.92,-40.755 76.952,-40.755 z"
       transform="matrix(0.27767,0,0,0.27767,-64.85,3.25)"
       inkscape:connector-curvature="0"
       style="fill:#764e2a;stroke:#000000" />
    <path
       id="ID0.4672161932103336"
       d="m 1029.613,735.023 c 0,21.369 4.799,41.163 12.965,57.376 16.764,13.47 36.601,21.267 57.869,21.267 21.268,0 41.103,-7.797 57.869,-21.267 8.167,-16.213 12.967,-36.007 12.967,-57.376 0,-54.942 -31.716,-99.482 -70.836,-99.482 -39.12,0 -70.834,44.539 -70.834,99.482 z"
       transform="matrix(0.27767,0,0,0.27767,-64.85,3.25)"
       inkscape:connector-curvature="0"
       style="fill:#c2b59c" />
    <path
       id="ID0.3050416838377714"
       d="m 1145.507,492.065 c 0.162,-2.145 0.25,-4.321 0.25,-6.524 0,-16.108 -4.417,-30.791 -11.673,-41.873 3.313,-0.798 6.753,-2.694 9.7,-5.599 6.58,-6.491 8.198,-15.519 3.615,-20.166 -4.583,-4.649 -13.635,-3.156 -20.212,3.334 -2.779,2.736 -4.656,5.923 -5.574,9.042 -6.32,-4.614 -13.519,-7.238 -21.165,-7.238 -8.015,0 -15.54,2.882 -22.071,7.918 -0.832,-3.334 -2.782,-6.788 -5.759,-9.723 -6.58,-6.491 -15.631,-7.984 -20.214,-3.334 -4.584,4.648 -2.965,13.676 3.617,20.166 3.232,3.188 7.062,5.163 10.662,5.803 -7.178,11.059 -11.548,25.658 -11.548,41.669 0,2.203 0.088,4.379 0.248,6.524 -9.362,7.716 -15.091,17.819 -15.091,28.904 0,12.074 6.74,23.015 17.631,30.935 10.889,7.922 25.929,12.825 42.526,12.825 16.597,0 31.635,-4.903 42.524,-12.825 10.889,-7.92 17.631,-18.862 17.631,-30.935 0,-11.085 -5.735,-21.186 -15.097,-28.903 z"
       transform="matrix(0.27767,0,0,0.27767,-64.85,3.25)"
       inkscape:connector-curvature="0"
       style="fill:#764e2a;stroke:#000000" />
    <path
       id="ID0.1214322866871953"
       d="m 1082.219,457.416 c 1.579,0 3.012,0.7 4.048,1.832 1.037,1.131 1.679,2.694 1.679,4.419 0,1.722 -0.642,3.287 -1.679,4.416 -1.036,1.134 -2.469,1.832 -4.048,1.832 -1.583,0 -3.014,-0.7 -4.052,-1.832 -1.036,-1.131 -1.678,-2.694 -1.678,-4.416 0,-1.725 0.642,-3.288 1.678,-4.419 1.037,-1.132 2.469,-1.832 4.052,-1.832 z"
       transform="matrix(0.27767,0,0,0.27767,-64.85,3.25)"
       inkscape:connector-curvature="0"
       style="fill:#010101" />
    <path
       id="ID0.11229029856622219"
       d="m 1121.282,457.416 c 1.579,0 3.014,0.7 4.048,1.832 1.041,1.131 1.681,2.694 1.681,4.419 0,1.722 -0.64,3.287 -1.681,4.416 -1.034,1.134 -2.469,1.832 -4.048,1.832 -1.579,0 -3.014,-0.7 -4.048,-1.832 -1.041,-1.131 -1.681,-2.694 -1.681,-4.416 0,-1.725 0.64,-3.288 1.681,-4.419 1.034,-1.132 2.469,-1.832 4.048,-1.832 z"
       transform="matrix(0.27767,0,0,0.27767,-64.85,3.25)"
       inkscape:connector-curvature="0"
       style="fill:#010101" />
    <path
       id="ID0.12470964528620243"
       d="m 1100.447,513.598 c -25.176,0 -45.585,15.42 -45.585,34.444 0,0.499 0.023,0.994 0.049,1.488 11.031,9.292 27.334,15.179 45.536,15.179 18.204,0 34.505,-5.889 45.538,-15.179 0.028,-0.494 0.049,-0.988 0.049,-1.488 0,-19.024 -20.409,-34.444 -45.587,-34.444 z"
       transform="matrix(0.27767,0,0,0.27767,-64.85,3.25)"
       inkscape:connector-curvature="0"
       style="fill:#c2b59c" />
    <path
       id="ID0.37403157306835055"
       d="m 1100.447,490.75 c 3.739,0 7.129,1.692 9.584,4.426 2.455,2.734 3.971,6.51 3.971,10.678 0,4.168 -1.516,7.943 -3.971,10.678 -2.455,2.736 -5.845,4.426 -9.584,4.426 -3.739,0 -7.127,-1.692 -9.582,-4.426 -2.453,-2.734 -3.972,-6.51 -3.972,-10.678 0,-4.168 1.519,-7.943 3.972,-10.678 2.455,-2.734 5.843,-4.426 9.582,-4.426 z"
       transform="matrix(0.27767,0,0,0.27767,-64.85,3.25)"
       inkscape:connector-curvature="0"
       style="fill:#ec2227;stroke:#ed1c24" />
    <path
       id="ID0.9377652462571859"
       d="m 1128.857,539.719 c 0,9.406 -12.721,17.028 -28.41,17.028 -15.691,0 -28.41,-7.621 -28.41,-17.028 0,-9.407 12.719,-8.035 28.41,-8.035 15.689,0 28.41,-1.371 28.41,8.035 z"
       transform="matrix(0.27767,0,0,0.27767,-64.85,3.25)"
       inkscape:connector-curvature="0"
       style="fill:#ffffff;stroke:#010101" />
  </g>
</svg>

<svg version="1.1" width="271" height="249" xmlns="http://www.w3.org/2000/svg" xmlns:xlink="http://www.w3.org/1999/xlink">
  <!-- Exported by Scratch - http://scratch.mit.edu/ -->
  <g id="ID0.048281502444297075" transform="matrix(1, 0, 0, 1, -201, -110)">
    <path id="ID0.10931513691321015" fill="#764E2A" stroke="#000000" d="M 1128.857 867.043 C 1128.857 873.669 1134.231 879.043 1140.857 879.043 L 1151.208 879.043 C 1157.834 879.043 1163.208 873.669 1163.208 867.043 L 1163.208 776.755 C 1163.208 770.125 1157.834 764.755 1151.208 764.755 L 1140.857 764.755 C 1134.231 764.755 1128.857 770.125 1128.857 776.755 L 1128.857 867.043 Z " transform="matrix(0.2776699960231781, 0, 0, 0.2776699960231781, -64.85, 3.25)"/>
    <path id="ID0.7591547076590359" fill="#010101" stroke="#010101" d="M 1146.034 858.543 C 1153.022 858.543 1159.360 859.971 1163.946 862.278 C 1168.532 864.589 1171.370 867.775 1171.370 871.292 C 1171.370 874.809 1168.532 877.995 1163.946 880.302 C 1159.360 882.613 1153.022 884.041 1146.034 884.041 C 1139.042 884.041 1132.708 882.613 1128.122 880.302 C 1123.536 877.995 1120.694 874.808 1120.694 871.292 C 1120.694 867.775 1123.536 864.589 1128.122 862.278 C 1132.708 859.971 1139.042 858.543 1146.034 858.543 Z " transform="matrix(0.2776699960231781, 0, 0, 0.2776699960231781, -64.85, 3.25)"/>
    <path id="ID0.0989027488976717" fill="#764E2A" stroke="#000000" d="M 1072.037 867.043 C 1072.037 873.669 1066.665 879.043 1060.037 879.043 L 1049.686 879.043 C 1043.060 879.043 1037.686 873.669 1037.686 867.043 L 1037.686 776.755 C 1037.686 770.125 1043.060 764.755 1049.686 764.755 L 1060.037 764.755 C 1066.665 764.755 1072.037 770.125 1072.037 776.755 L 1072.037 867.043 Z " transform="matrix(0.2776699960231781, 0, 0, 0.2776699960231781, -64.85, 3.25)"/>
    <path id="ID0.4515355387702584" fill="#010101" stroke="#010101" d="M 1054.862 858.543 C 1061.852 858.543 1068.186 859.971 1072.774 862.278 C 1077.362 864.589 1080.200 867.775 1080.200 871.292 C 1080.200 874.809 1077.362 877.995 1072.774 880.302 C 1068.186 882.613 1061.852 884.041 1054.862 884.041 C 1047.872 884.041 1041.538 882.613 1036.950 880.302 C 1032.362 877.995 1029.524 874.808 1029.524 871.292 C 1029.524 867.775 1032.362 864.589 1036.950 862.278 C 1041.537 859.971 1047.872 858.543 1054.862 858.543 Z " transform="matrix(0.2776699960231781, 0, 0, 0.2776699960231781, -64.85, 3.25)"/>
    <g id="ID0.8780540516600013" transform="matrix(1, 0, 0, 1, 201, 110)">
      <path id="ID0.3386278133839369" fill="#603A17" stroke="#010101" d="M 1007.292 732.448 C 1008.987 739.457 1005.847 746.783 999.562 748.900 C 996.908 749.793 995.584 750.236 992.927 751.130 C 986.647 753.247 979.202 748.186 977.155 739.728 C 963.917 674.752 981.590 614.235 1027.731 566.606 C 1034.009 560.580 1043.005 560.323 1047.162 565.486 C 1048.917 567.668 1049.795 568.757 1051.553 570.939 C 1055.707 576.102 1054.411 583.968 1049.207 588.964 C 1010.966 629.040 996.629 678.086 1007.292 732.448 Z " transform="matrix(0.2776699960231781, 0, 0, 0.2776699960231781, -265.9, -106.75)"/>
    </g>
    <g id="ID0.878742640838027" transform="matrix(1, 0, 0, 1, 201, 110)">
      <path id="ID0.49854832142591476" fill="#603A17" stroke="#010101" d="M 1192.810 732.448 C 1191.111 739.457 1194.252 746.783 1200.533 748.900 C 1203.185 749.793 1204.511 750.236 1207.166 751.130 C 1213.444 753.247 1220.889 748.186 1222.936 739.728 C 1236.185 674.748 1218.498 614.242 1172.365 566.606 C 1166.084 560.580 1157.087 560.323 1152.934 565.486 C 1151.179 567.668 1150.300 568.757 1148.545 570.939 C 1144.391 576.102 1145.686 583.968 1150.891 588.964 C 1189.142 629.047 1203.449 678.079 1192.810 732.448 Z " transform="matrix(0.2776699960231781, 0, 0, 0.2776699960231781, -265.9, -106.75)"/>
    </g>
    <g id="ID0.1720329625532031" transform="matrix(1, 0, 0, 1, 201, 110)">
      <path id="ID0.45218329411000013" fill="#010101" d="M 1063.666 443.944 C 1059.495 441.150 1058.072 437.694 1057.573 432.665 C 1057.074 427.648 1056.662 422.684 1055.953 417.688 C 1054.870 410.053 1049.457 399.526 1039.812 403.216 C 1031.872 406.251 1035.159 416.129 1037.005 422.081 C 1037.179 422.642 1037.576 424.079 1037.796 424.835 C 1037.650 425.069 1037.494 426.826 1037.423 427.072 C 1037.131 428.113 1036.783 429.142 1036.331 430.125 C 1034.216 434.731 1028.727 430.735 1028.947 426.759 C 1029.274 420.822 1029.823 416.605 1027.639 410.853 C 1026.359 407.480 1024.970 403.634 1022.318 401.060 C 1016.552 395.457 1011.690 402.636 1010.534 407.897 C 1009.641 411.964 1009.516 416.848 1008.522 421.196 C 997.611 411.090 994.486 391.736 979.210 387.220 C 972.559 385.254 964.180 384.718 960.004 391.335 C 956.659 396.635 958.949 404.153 961.057 409.439 C 963.422 415.365 966.577 421.033 970.447 426.108 C 976.324 433.810 985.064 439.536 993.234 444.541 C 1014.023 457.283 1038.582 465.212 1062.879 467.041 C 1064.963 467.199 1066.361 466.255 1067.091 464.894 C 1067.889 464.708 1068.682 464.287 1069.414 463.580 C 1077.430 455.819 1070.852 448.754 1063.666 443.944 Z " transform="matrix(0.2776699960231781, 0, 0, 0.2776699960231781, -265.9, -106.75)"/>
      <path id="ID0.6435688906349242" fill="#010101" d="M 1136.429 443.944 C 1140.600 441.150 1142.025 437.694 1142.524 432.665 C 1143.023 427.648 1143.435 422.684 1144.145 417.688 C 1145.228 410.053 1150.637 399.526 1160.281 403.216 C 1168.222 406.251 1164.934 416.129 1163.088 422.081 C 1162.916 422.642 1162.518 424.079 1162.297 424.835 C 1162.445 425.069 1162.603 426.826 1162.670 427.072 C 1162.962 428.113 1163.310 429.142 1163.764 430.125 C 1165.878 434.731 1171.368 430.735 1171.150 426.759 C 1170.819 420.822 1170.271 416.605 1172.458 410.853 C 1173.735 407.480 1175.124 403.634 1177.776 401.060 C 1183.544 395.457 1188.404 402.636 1189.565 407.897 C 1190.458 411.964 1190.585 416.848 1191.577 421.196 C 1202.487 411.090 1205.610 391.736 1220.888 387.220 C 1227.535 385.254 1235.920 384.718 1240.091 391.335 C 1243.439 396.635 1241.146 404.153 1239.036 409.439 C 1236.673 415.365 1233.521 421.033 1229.646 426.108 C 1223.773 433.810 1215.029 439.536 1206.863 444.541 C 1186.074 457.283 1161.515 465.212 1137.220 467.041 C 1135.131 467.199 1133.738 466.255 1133.007 464.894 C 1132.205 464.708 1131.417 464.287 1130.686 463.580 C 1122.667 455.819 1129.244 448.754 1136.429 443.944 Z " transform="matrix(0.2776699960231781, 0, 0, 0.2776699960231781, -265.9, -106.75)"/>
    </g>
    <path id="ID0.6784169343300164" fill="#764E2A" stroke="#000000" d="M 1099.902 535.542 C 1129.934 535.542 1157.145 551.124 1176.854 576.297 C 1196.556 601.473 1208.757 636.237 1208.757 674.604 C 1208.757 712.971 1196.557 747.736 1176.854 772.907 C 1157.145 798.082 1129.934 813.665 1099.902 813.665 C 1069.871 813.665 1042.656 798.081 1022.950 772.907 C 1003.246 747.736 991.047 712.970 991.047 674.604 C 991.047 636.237 1003.246 601.474 1022.950 576.297 C 1042.656 551.125 1069.870 535.542 1099.902 535.542 Z " transform="matrix(0.2776699960231781, 0, 0, 0.2776699960231781, -64.85, 3.25)"/>
    <path id="ID0.4672161932103336" fill="#C2B59C" d="M 1029.613 735.023 C 1029.613 756.392 1034.412 776.186 1042.578 792.399 C 1059.342 805.869 1079.179 813.666 1100.447 813.666 C 1121.715 813.666 1141.550 805.869 1158.316 792.399 C 1166.483 776.186 1171.283 756.392 1171.283 735.023 C 1171.283 680.081 1139.567 635.541 1100.447 635.541 C 1061.327 635.541 1029.613 680.080 1029.613 735.023 Z " transform="matrix(0.2776699960231781, 0, 0, 0.2776699960231781, -64.85, 3.25)"/>
    <path id="ID0.3050416838377714" fill="#764E2A" stroke="#000000" d="M 1145.507 492.065 C 1145.669 489.920 1145.757 487.744 1145.757 485.541 C 1145.757 469.433 1141.340 454.750 1134.084 443.668 C 1137.397 442.870 1140.837 440.974 1143.784 438.069 C 1150.364 431.578 1151.982 422.550 1147.399 417.903 C 1142.816 413.254 1133.764 414.747 1127.187 421.237 C 1124.408 423.973 1122.531 427.160 1121.613 430.279 C 1115.293 425.665 1108.094 423.041 1100.448 423.041 C 1092.433 423.041 1084.908 425.923 1078.377 430.959 C 1077.545 427.625 1075.595 424.171 1072.618 421.236 C 1066.038 414.745 1056.987 413.252 1052.404 417.902 C 1047.820 422.550 1049.439 431.578 1056.021 438.068 C 1059.253 441.256 1063.083 443.231 1066.683 443.871 C 1059.505 454.930 1055.135 469.529 1055.135 485.540 C 1055.135 487.743 1055.223 489.919 1055.383 492.064 C 1046.021 499.780 1040.292 509.883 1040.292 520.968 C 1040.292 533.042 1047.032 543.983 1057.923 551.903 C 1068.812 559.825 1083.852 564.728 1100.449 564.728 C 1117.046 564.728 1132.084 559.825 1142.973 551.903 C 1153.862 543.983 1160.604 533.041 1160.604 520.968 C 1160.602 509.883 1154.869 499.782 1145.507 492.065 Z " transform="matrix(0.2776699960231781, 0, 0, 0.2776699960231781, -64.85, 3.25)"/>
    <path id="ID0.1214322866871953" fill="#010101" d="M 1082.219 457.416 C 1083.798 457.416 1085.231 458.116 1086.267 459.248 C 1087.304 460.379 1087.946 461.942 1087.946 463.667 C 1087.946 465.389 1087.304 466.954 1086.267 468.083 C 1085.231 469.217 1083.798 469.915 1082.219 469.915 C 1080.636 469.915 1079.205 469.215 1078.167 468.083 C 1077.131 466.952 1076.489 465.389 1076.489 463.667 C 1076.489 461.942 1077.131 460.379 1078.167 459.248 C 1079.204 458.116 1080.636 457.416 1082.219 457.416 Z " transform="matrix(0.2776699960231781, 0, 0, 0.2776699960231781, -64.85, 3.25)"/>
    <path id="ID0.11229029856622219" fill="#010101" d="M 1121.282 457.416 C 1122.861 457.416 1124.296 458.116 1125.330 459.248 C 1126.371 460.379 1127.011 461.942 1127.011 463.667 C 1127.011 465.389 1126.371 466.954 1125.330 468.083 C 1124.296 469.217 1122.861 469.915 1121.282 469.915 C 1119.703 469.915 1118.268 469.215 1117.234 468.083 C 1116.193 466.952 1115.553 465.389 1115.553 463.667 C 1115.553 461.942 1116.193 460.379 1117.234 459.248 C 1118.268 458.116 1119.703 457.416 1121.282 457.416 Z " transform="matrix(0.2776699960231781, 0, 0, 0.2776699960231781, -64.85, 3.25)"/>
    <path id="ID0.12470964528620243" fill="#C2B59C" d="M 1100.447 513.598 C 1075.271 513.598 1054.862 529.018 1054.862 548.042 C 1054.862 548.541 1054.885 549.036 1054.911 549.530 C 1065.942 558.822 1082.245 564.709 1100.447 564.709 C 1118.651 564.709 1134.952 558.820 1145.985 549.530 C 1146.013 549.036 1146.034 548.542 1146.034 548.042 C 1146.034 529.018 1125.625 513.598 1100.447 513.598 Z " transform="matrix(0.2776699960231781, 0, 0, 0.2776699960231781, -64.85, 3.25)"/>
    <path id="ID0.37403157306835055" fill="#EC2227" stroke="#ED1C24" d="M 1100.447 490.750 C 1104.186 490.750 1107.576 492.442 1110.031 495.176 C 1112.486 497.910 1114.002 501.686 1114.002 505.854 C 1114.002 510.022 1112.486 513.797 1110.031 516.532 C 1107.576 519.268 1104.186 520.958 1100.447 520.958 C 1096.708 520.958 1093.320 519.266 1090.865 516.532 C 1088.412 513.798 1086.893 510.022 1086.893 505.854 C 1086.893 501.686 1088.412 497.911 1090.865 495.176 C 1093.320 492.442 1096.708 490.750 1100.447 490.750 Z " transform="matrix(0.2776699960231781, 0, 0, 0.2776699960231781, -64.85, 3.25)"/>
    <path id="ID0.9377652462571859" fill="#FFFFFF" stroke="#010101" d="M 1128.857 539.719 C 1128.857 549.125 1116.136 556.747 1100.447 556.747 C 1084.756 556.747 1072.037 549.126 1072.037 539.719 C 1072.037 530.312 1084.756 531.684 1100.447 531.684 C 1116.136 531.684 1128.857 530.313 1128.857 539.719 Z " transform="matrix(0.2776699960231781, 0, 0, 0.2776699960231781, -64.85, 3.25)"/>
  </g>
</svg>
